packages/ui-icons/src/Service-logos/24/Twitter.svg

<?xml version="1.0" encoding="UTF-8"?>
<svg viewBox="0 0 32 32" version="1.1" xmlns="http://www.w3.org/2000/svg" xmlns:xlink="http://www.w3.org/1999/xlink">
    <!-- Generator: Sketch 49 (51002) - http://www.bohemiancoding.com/sketch -->
    <title>logo/24/twitter</title>
    <desc>Created with Sketch.</desc>
    <defs></defs>
    <g id="logo/24/twitter" stroke="none" stroke-width="1" fill="none" fill-rule="evenodd">
        <circle id="Oval-2-Copy" fill="#1DA1F2" cx="16" cy="16" r="12"></circle>
        <path d="M13.7173868,23 C19.378143,23 22.4735731,18.3836841 22.4735731,14.3807313 C22.4735731,14.2496121 22.47086,14.1190846 22.4648852,13.9891471 C23.0657906,13.5615358 23.5880961,13.027907 24,12.42045 C23.4485946,12.6617199 22.8551892,12.8241419 22.2326827,12.8973795 C22.8680892,12.5223326 23.3558936,11.9290514 23.5859961,11.221779 C22.9913901,11.5687705 22.3328837,11.8209674 21.6317768,11.9571058 C21.0701714,11.3682538 20.2706635,11 19.3853551,11 C17.6858384,11 16.3076245,12.3566633 16.3076245,14.0290144 C16.3076245,14.2667401 16.3346245,14.49797 16.3874255,14.7197485 C13.8296009,14.5930599 11.5615777,13.3875968 10.0438634,11.5545957 C9.77956041,12.0022886 9.62715944,12.5223326 9.62715944,13.0772236 C9.62715944,14.1282392 10.1704644,15.0561094 10.9966722,15.5988927 C10.4917678,15.5835366 10.0174629,15.4471019 9.60285844,15.2200073 C9.60240542,15.2327175 9.60240542,15.2451091 9.60240542,15.2586933 C9.60240542,16.7258026 10.6632163,17.9507567 12.0714301,18.2283496 C11.8128276,18.2977482 11.5407247,18.3349571 11.2599222,18.3349571 C11.0619202,18.3349571 10.8690182,18.3157739 10.6815168,18.2803249 C11.0733202,19.4840162 12.2094311,20.359911 13.5564449,20.3844227 C12.503134,21.1971204 11.1762212,21.6811372 9.7341074,21.6811372 C9.48600443,21.6811372 9.24090247,21.6672458 9,21.6392024 C10.3620138,22.4985609 11.9793296,23 13.7175459,23" id="path3611" fill="#FFFFFF" fill-rule="nonzero"></path>
    </g>
</svg>

<svg viewBox="0 0 32 32" xmlns="http://www.w3.org/2000/svg"><g fill="none" fill-rule="evenodd"><circle fill="#1DA1F2" cx="16" cy="16" r="12"/><path d="M13.717 23c5.661 0 8.757-4.616 8.757-8.62 0-.13-.003-.26-.01-.39A6.204 6.204 0 0 0 24 12.42a6.213 6.213 0 0 1-1.767.477 3.049 3.049 0 0 0 1.353-1.675c-.595.347-1.253.599-1.954.735A3.097 3.097 0 0 0 19.385 11c-1.7 0-3.077 1.357-3.077 3.029 0 .238.027.469.08.69a8.784 8.784 0 0 1-6.344-3.164 2.985 2.985 0 0 0-.417 1.522c0 1.051.543 1.98 1.37 2.522a3.092 3.092 0 0 1-1.394-.379v.039c0 1.467 1.06 2.692 2.468 2.97a3.127 3.127 0 0 1-1.39.051 3.075 3.075 0 0 0 2.875 2.104 6.236 6.236 0 0 1-3.822 1.297A6.35 6.35 0 0 1 9 21.64 8.812 8.812 0 0 0 13.718 23" fill="#FFF" fill-rule="nonzero"/></g></svg>
